X: 8
T: Sackett's Harbor  v.3
P: piffero terzo a090
O: Dan Moylan
%R:jig, march
F: http://ancients.sudburymuster.org/mus/col/pdf/contraF.pdf
Z: 2019 John Chambers <jc:trillian.mit.edu>
M: 6/8
L: 1/8
K: D
|:\
d3 B3 | A3 G3 | F3 A3 | c3 e3 |\
d3 B3 | A3 e3 | d2d dec | d3 z2 ::\
f2 (3f/e/d/ c2d | cdf cdf |
c2 (3c/B/A/ G2A | GAc GAc |\
f2 (3f/e/d/ c2d | cdf fdc | d2d dec | d3 z3 ::\
f3 d3 | e3 c3 | d3 B3 |A3 c3 |
f3 d3 | e3 c3 | d3 e3 | f3 z3 ::\
a3 f3 | f3 c3 | d3 f3 | g3 c3 |\
a3 f3 | f3 c3 | agf fde | f3 z3 :|

% %sep 1 1 200
% %center - - - - - - - - - -
% Whatever we want at the bottom of each set belongs here.
